X: 12
T: Gravel Walks, The
Z: Sean Perry
S: https://thesession.org/tunes/42#setting50818
R: reel
M: 4/4
L: 1/8
K: Ador
|:A2 eA c/B/A eA|A2 ed BAGB|A2 eA B/c/d ef|gedc BAGB:|
A2 aA gAfA|A/A/A ed BAGB|A2 aA gAfa|gedc BAGB|
A2 aA gAfA|A/A/A ed BAGB|ABcd e/f/g fa|gedc BAGB||
|:cA A^G A2 AB|cAcd B=GBd|cA A^G A2 ef|=gfge dBGB:|
|:c2 gc acgc|c/c/c dc BAGB|c2 gc acga|gedc BAGB|
c2 gc acgc|c/c/c dc BAGB|ABcd e/f/g fa|gedc BAGB:|

